X: 35817
T: Salthill Prom
R: reel
M: 4/4
K: Gmajor
K:G
|:"G"DG (3GFG Bcde|"D"fdge fdce|"G" dgfd "Am"cedc|"G"B2cA "D"dcAF|
"G"DG (3GFG Bcde|"D"fdge fdce|"Am" d2 (3ABc "D" defg|"D7" adcA "G" dGG2:|
|:"G" g2dc (3Bcd GB|"D" ADFG ABce|"G"d2Bd "Em"gfga|"Cmaj7" b2 ag "D"fdfa|
"G" g2dc (3Bcd GB|"D" ADFG Adef|"Em"g2"Am"ag "D"fdde|1 "D" fdge fdef:|2 "D" fdge fdcA||

